packages/calcite-ui-icons/icons/select-row-16.svg

<?xml version="1.0" encoding="UTF-8"?><svg id="icons" xmlns="http://www.w3.org/2000/svg" viewBox="0 0 16 16"><path d="M0,8v4h16v-4H0ZM1,11v-2h2v2H1ZM4,11v-2h5v2h-5ZM15,11h-5v-2h5v2Z"/><path d="M0,1v7h1v-2h2v2h1v-2h5v2h1v-2h5v2h1V1H0ZM15,5H1v-3h14v3ZM15,12h1v3H0v-3h1v2h2v-2h1v2h5v-2h1v2h5v-2Z" opacity=".25"/><rect width="16" height="16" fill="none"/></svg>

<svg xmlns="http://www.w3.org/2000/svg" viewBox="0 0 16 16"><path d="M0 8v4h16V8zm1 3V9h2v2zm3 0V9h5v2zm11 0h-5V9h5z"/><path d="M0 1v7h1V6h2v2h1V6h5v2h1V6h5v2h1V1zm15 4H1V2h14zm0 7h1v3H0v-3h1v2h2v-2h1v2h5v-2h1v2h5z" opacity=".25"/><path fill="none" d="M0 0h16v16H0z"/></svg>
